X: 29
M: C
L: 1/8
K: F
cB |\
|: (3cde) |\
fcAc fagf | gece gbag | afge fdgf | e2c2 c2fc |
((3def) ((3ABc) B2ba | gfed c2BA | Bcde fdcB | A2F2 F2 :|




